app/assets/images/age.svg

<?xml version="1.0" encoding="UTF-8"?>
<svg width="32px" height="32px" viewBox="0 0 32 32" version="1.1" xmlns="http://www.w3.org/2000/svg" xmlns:xlink="http://www.w3.org/1999/xlink">
    <!-- Generator: Sketch 51.3 (57544) - http://www.bohemiancoding.com/sketch -->
    <title>Icon/Details/Edad-Promedio</title>
    <desc>Created with Sketch.</desc>
    <defs></defs>
    <g id="Icon/Details/Edad-Promedio" stroke="none" stroke-width="1" fill="none" fill-rule="evenodd">
        <g id="Group" transform="translate(4.000000, 1.000000)" fill="#BDD4DA" fill-rule="nonzero">
            <path d="M18.8198758,16.7080745 C18.8198758,16.7080745 17.2049689,16.8322981 16.7701863,15.4037267 L16.7701863,14.7826087 C17.3913043,14.0993789 17.826087,13.3540373 18.2608696,12.6708075 C18.3850932,12.484472 18.3850932,12.2981366 18.2608696,12.1118012 C18.6956522,10.9937888 18.9440994,9.25465839 19.0062112,7.95031056 C19.1304348,7.82608696 19.2546584,7.70186335 19.2546584,7.45341615 C19.2546584,7.20496894 19.2546584,6.95652174 19.2546584,6.70807453 C19.2546584,2.36024845 15.8385093,0.0621118012 12.4223602,0.0621118012 C9.25465839,0.0621118012 5.77639752,2.11180124 5.65217391,6.58385093 C5.65217391,7.63975155 5.83850932,10.621118 6.64596273,12.2981366 C6.64596273,12.2981366 6.58385093,12.7950311 6.70807453,12.9813665 C7.08074534,13.4782609 7.45341615,14.1614907 8.01242236,14.8447205 C8.19875776,15.7763975 7.45341615,16.8322981 5.96273292,16.7701863 C2.85714286,16.7701863 0.310559006,19.068323 0.310559006,21.863354 L0.310559006,25.9627329 C0.310559006,26.1490683 0.434782609,26.3975155 0.621118012,26.4596273 C4.09937888,28.6335404 8.19875776,29.8136646 12.4223602,29.8136646 C16.7080745,29.8136646 20.7453416,28.6335404 24.1614907,26.3975155 C24.3478261,26.2732919 24.4720497,26.0869565 24.4720497,25.9006211 L24.4720497,21.8012422 C24.4720497,19.0062112 21.9254658,16.7080745 18.8198758,16.7080745 Z M18.0745342,17.8881988 C17.8881988,18.5093168 17.3913043,19.1925466 16.4596273,20.0621118 L14.2857143,19.2546584 C15.2173913,18.8819876 16.2732919,18.2608696 16.7701863,17.3291925 C17.2049689,17.6397516 17.6397516,17.826087 18.0745342,17.8881988 Z M12.4223602,18.6335404 C11.4906832,18.3850932 9.31677019,17.5776398 8.94409938,16.4596273 C9.06832298,16.2732919 9.13043478,16.0869565 9.19254658,15.9006211 C9.9378882,16.5217391 10.931677,17.0186335 12.1118012,17.3913043 C12.173913,17.3913043 12.2360248,17.3913043 12.2981366,17.3913043 C12.3602484,17.3913043 12.4223602,17.3913043 12.484472,17.3913043 C13.7888199,17.0186335 14.7826087,16.4596273 15.5900621,15.8385093 C15.6521739,16.0869565 15.7142857,16.2732919 15.8385093,16.5217391 C15.5279503,17.6397516 13.3540373,18.3850932 12.4223602,18.6335404 Z M8.26086957,12.9813665 C8.81987578,12.9813665 9.37888199,12.6708075 9.68944099,12.1118012 C10.5590062,10.621118 11.863354,10.4968944 12.2981366,10.4968944 C12.2981366,10.4968944 12.2981366,10.4968944 12.2981366,10.4968944 C12.3602484,10.4968944 12.4223602,10.4968944 12.4223602,10.4968944 C12.7950311,10.4968944 14.0993789,10.621118 14.9689441,12.1118012 C15.2795031,12.6708075 15.9006211,13.0434783 16.5217391,12.9813665 C15.6521739,14.2857143 14.4099379,15.4658385 12.2981366,16.0869565 C10.2484472,15.5279503 9.13043478,14.2857143 8.26086957,12.9813665 Z M16.0248447,11.4906832 C14.7204969,9.25465839 12.6708075,9.25465839 12.2981366,9.25465839 C11.9254658,9.25465839 9.8757764,9.25465839 8.57142857,11.4906832 C8.38509317,11.8012422 8.07453416,11.8012422 7.82608696,11.552795 C7.82608696,11.4906832 7.76397516,11.4906832 7.70186335,11.4906832 C7.39130435,10.6832298 7.14285714,9.7515528 7.08074534,8.81987578 C7.88819876,8.69565217 8.63354037,8.44720497 9.37888199,8.13664596 C9.31677019,8.26086957 9.25465839,8.38509317 9.25465839,8.50931677 C9.25465839,8.88198758 9.50310559,9.13043478 9.8757764,9.13043478 C10.2484472,9.13043478 10.4968944,8.88198758 10.4968944,8.50931677 C10.4968944,8.13664596 10.2484472,7.88819876 9.8757764,7.88819876 C11.1180124,7.20496894 12.173913,6.27329193 13.0434783,5.40372671 C13.5403727,4.9068323 14.4099379,4.9689441 14.7826087,5.59006211 C15.7763975,7.14285714 16.9565217,7.70186335 17.7639752,7.95031056 C17.7018634,9.06832298 17.515528,10.4968944 17.2049689,11.4285714 C17.0807453,11.4285714 16.9565217,11.4906832 16.8944099,11.6149068 C16.5838509,11.8012422 16.2111801,11.8012422 16.0248447,11.4906832 Z M12.484472,1.24223602 C15.1552795,1.24223602 18.0124224,2.91925466 18.0745342,6.64596273 C17.515528,6.45962733 16.5838509,6.02484472 15.8385093,4.8447205 C15.3416149,4.16149068 14.5962733,3.72670807 13.7888199,3.72670807 C13.1677019,3.72670807 12.5465839,3.97515528 12.1118012,4.47204969 C10.8074534,5.77639752 8.94409938,7.32919255 6.95652174,7.57763975 C6.95652174,7.32919255 6.89440994,6.95652174 6.95652174,6.58385093 C7.01863354,2.91925466 9.8757764,1.24223602 12.484472,1.24223602 Z M8.01242236,17.3913043 C8.57142857,18.2608696 9.56521739,18.8819876 10.4968944,19.3167702 L8.32298137,20.1242236 C7.39130435,19.2546584 6.89440994,18.5714286 6.70807453,17.9503106 C7.20496894,17.826087 7.63975155,17.6397516 8.01242236,17.3913043 Z M23.2298137,25.5279503 C20.0621118,27.515528 16.3354037,28.5714286 12.4223602,28.5714286 C8.50931677,28.5714286 4.7826087,27.515528 1.61490683,25.5279503 L1.61490683,21.8012422 C1.61490683,19.8136646 3.29192547,18.1987578 5.46583851,18.0124224 C5.65217391,19.0062112 6.33540373,20.0621118 7.76397516,21.3043478 C7.88819876,21.4285714 8.01242236,21.4906832 8.19875776,21.4906832 C8.26086957,21.4906832 8.32298137,21.4906832 8.38509317,21.4285714 L12.4223602,20 L16.4596273,21.4285714 C16.5217391,21.4285714 16.5838509,21.4906832 16.6459627,21.4906832 C16.7701863,21.4906832 16.9565217,21.4285714 17.0807453,21.3043478 C18.5093168,20 19.1925466,19.0062112 19.378882,18.0124224 C21.552795,18.2608696 23.2298137,19.8757764 23.2298137,21.8012422 L23.2298137,25.5279503 Z" id="Shape" stroke="#BDD4DA" stroke-width="0.4"></path>
            <path d="M11.552795,13.2298137 L13.2919255,13.2298137 C13.6645963,13.2298137 13.9130435,12.9813665 13.9130435,12.6086957 C13.9130435,12.2360248 13.6645963,11.9875776 13.2919255,11.9875776 L11.552795,11.9875776 C11.1801242,11.9875776 10.931677,12.2360248 10.931677,12.6086957 C10.931677,12.9813665 11.1801242,13.2298137 11.552795,13.2298137 Z" id="Shape"></path>
            <circle id="Oval" cx="15.0978261" cy="8.45" r="1"></circle>
        </g>
    </g>
</svg>

<svg width="32" height="32" viewBox="0 0 32 32" xmlns="http://www.w3.org/2000/svg"><title>Icon/Details/Edad-Promedio</title><g transform="translate(4 1)" fill="#BDD4DA" fill-rule="nonzero"><path d="M18.82 16.708s-1.615.124-2.05-1.304v-.621c.621-.684 1.056-1.429 1.49-2.112a.466.466 0 0 0 0-.56c.436-1.117.684-2.856.746-4.16.124-.125.249-.25.249-.498v-.745c0-4.348-3.416-6.646-6.833-6.646-3.167 0-6.646 2.05-6.77 6.522 0 1.056.187 4.037.994 5.714 0 0-.062.497.062.683.373.497.745 1.18 1.304 1.864.187.931-.559 1.987-2.05 1.925-3.105 0-5.651 2.298-5.651 5.093v4.1c0 .186.124.435.31.497C4.1 28.634 8.2 29.814 12.422 29.814c4.286 0 8.323-1.18 11.74-3.416.186-.125.31-.311.31-.497v-4.1c0-2.795-2.547-5.093-5.652-5.093zm-.745 1.18c-.187.621-.684 1.305-1.615 2.174l-2.174-.807c.931-.373 1.987-.994 2.484-1.926.435.31.87.497 1.305.56zm-5.653.746c-.931-.249-3.105-1.056-3.478-2.174.124-.187.186-.373.249-.56.745.622 1.739 1.119 2.919 1.491h.372a9.08 9.08 0 0 0 3.106-1.552c.062.248.124.434.249.683-.311 1.118-2.485 1.863-3.417 2.112zM8.261 12.98c.559 0 1.118-.31 1.428-.87.87-1.49 2.174-1.614 2.61-1.614h.123c.373 0 1.677.124 2.547 1.615.31.559.932.931 1.553.87-.87 1.304-2.112 2.484-4.224 3.105-2.05-.559-3.168-1.801-4.037-3.106zm7.764-1.49c-1.305-2.236-3.354-2.236-3.727-2.236-.373 0-2.422 0-3.727 2.236-.186.31-.496.31-.745.062 0-.062-.062-.062-.124-.062-.31-.808-.56-1.74-.621-2.671.807-.124 1.553-.373 2.298-.683-.062.124-.124.248-.124.372 0 .373.248.621.62.621.373 0 .622-.248.622-.62 0-.373-.249-.622-.621-.622 1.242-.683 2.298-1.615 3.167-2.484.497-.497 1.367-.435 1.74.186.993 1.553 2.174 2.112 2.981 2.36-.062 1.118-.248 2.547-.559 3.479a.342.342 0 0 0-.31.186c-.311.186-.684.186-.87-.124zm-3.54-10.249c2.67 0 5.527 1.677 5.59 5.404-.56-.186-1.491-.621-2.236-1.801-.497-.684-1.243-1.118-2.05-1.118-.621 0-1.242.248-1.677.745-1.305 1.304-3.168 2.857-5.155 3.106 0-.249-.063-.621 0-.994.062-3.665 2.919-5.342 5.527-5.342zm-4.473 16.15c.56.869 1.553 1.49 2.485 1.925l-2.174.807c-.932-.87-1.429-1.553-1.615-2.174.497-.124.932-.31 1.304-.559zm15.218 8.136c-3.168 1.988-6.895 3.043-10.808 3.043-3.913 0-7.64-1.055-10.807-3.043v-3.727c0-1.987 1.677-3.602 3.85-3.789.187.994.87 2.05 2.299 3.292a.564.564 0 0 0 .435.187c.062 0 .124 0 .186-.062L12.422 20l4.038 1.429c.062 0 .124.062.186.062.124 0 .31-.062.435-.187 1.428-1.304 2.112-2.298 2.298-3.292 2.174.249 3.85 1.864 3.85 3.79v3.726z" stroke="#BDD4DA" stroke-width=".4"/><path d="M11.553 13.23h1.739c.373 0 .621-.249.621-.621 0-.373-.248-.621-.621-.621h-1.74c-.372 0-.62.248-.62.62 0 .373.248.622.62.622z"/><circle cx="15.098" cy="8.45" r="1"/></g></svg>
